symbols/web/balcony/materialsymbolsoutlined/balcony_wght700grad200_48px.svg

<svg xmlns="http://www.w3.org/2000/svg" height="48" width="48"><path d="M15.05 24.25V20.3h4v3.95Zm13.95 0V20.3h4.05v3.95ZM4.45 45.3V28.4h2v-8.1q0-3.4 1.3-6.6 1.3-3.2 3.65-5.6 2.35-2.4 5.575-3.925T24 2.65q3.8 0 7.025 1.525Q34.25 5.7 36.6 8.1t3.7 5.6q1.35 3.2 1.35 6.6v8.1h2v16.9Zm4-3.95h4.8v-9h-4.8Zm8.8 0h4.8v-9h-4.8Zm-6.8-12.95h11.6V6.9q-4.7.55-8.15 4.35t-3.45 9.05Zm15.55 0h11.6v-8.1q0-5.25-3.475-9.05Q30.65 7.45 26 6.9Zm0 12.95h4.8v-9H26Zm8.8 0h4.8v-9h-4.8Z"/></svg>

<svg xmlns="http://www.w3.org/2000/svg" height="48" width="48"><path d="M15.05 24.25V20.3H19.05V24.25ZM29 24.25V20.3H33.05V24.25ZM4.45 45.3V28.4H6.45V20.3Q6.45 16.9 7.75 13.7Q9.05 10.5 11.4 8.1Q13.75 5.7 16.975 4.175Q20.2 2.65 24 2.65Q27.8 2.65 31.025 4.175Q34.25 5.7 36.6 8.1Q38.95 10.5 40.3 13.7Q41.65 16.9 41.65 20.3V28.4H43.65V45.3ZM8.45 41.35H13.25V32.35H8.45ZM17.25 41.35H22.05V32.35H17.25ZM10.45 28.4H22.05V6.9Q17.35 7.45 13.9 11.25Q10.45 15.05 10.45 20.3ZM26 28.4H37.6V20.3Q37.6 15.05 34.125 11.25Q30.65 7.45 26 6.9ZM26 41.35H30.8V32.35H26ZM34.8 41.35H39.6V32.35H34.8Z"/></svg>
